X: 20
T:Blue-Eyed Stranger, Headington 2
M:4/4
L:1/8
R:Hornpipe
A:Headington
P:A2(A2B2)4
K:G
P:A
GF|
E2EF E2D2|GFGB A2GA|B2B2 BAGF|E2EF G2||
P:B
z2|
GABc d2B2|edcB A2A2|GABc d2d2|B4   d4|
GABc d2B2|edcB A2GA|B2BB BAGF|E2EF G2||
